source/box.svg

<svg width="24" height="24" viewBox="0 0 24 24" fill="none" xmlns="http://www.w3.org/2000/svg">
<path fill-rule="evenodd" clip-rule="evenodd" d="M4 6.75C3.86193 6.75 3.75 6.86193 3.75 7V20C3.75 20.1381 3.86193 20.25 4 20.25H20C20.1381 20.25 20.25 20.1381 20.25 20V7C20.25 6.86193 20.1381 6.75 20 6.75H4ZM2.25 7C2.25 6.0335 3.0335 5.25 4 5.25H20C20.9665 5.25 21.75 6.0335 21.75 7V20C21.75 20.9665 20.9665 21.75 20 21.75H4C3.0335 21.75 2.25 20.9665 2.25 20V7Z" fill="#1C1B1F"/>
<path fill-rule="evenodd" clip-rule="evenodd" d="M8.22461 12.0042C8.22461 11.5899 8.5604 11.2542 8.97461 11.2542H14.9746C15.3888 11.2542 15.7246 11.5899 15.7246 12.0042C15.7246 12.4184 15.3888 12.7542 14.9746 12.7542H8.97461C8.5604 12.7542 8.22461 12.4184 8.22461 12.0042Z" fill="#1C1B1F"/>
<path fill-rule="evenodd" clip-rule="evenodd" d="M5.93558 2.00612C6.07799 1.84336 6.28374 1.75 6.50001 1.75H17.5C17.7163 1.75 17.922 1.84336 18.0644 2.00612L21.5644 6.00612C21.8372 6.31785 21.8056 6.79167 21.4939 7.06443C21.1822 7.33719 20.7083 7.30561 20.4356 6.99388L17.1597 3.25H6.84034L3.56444 6.99388C3.29168 7.30561 2.81786 7.33719 2.50613 7.06443C2.1944 6.79167 2.16282 6.31785 2.43558 6.00612L5.93558 2.00612Z" fill="#1C1B1F"/>
</svg>

<svg xmlns="http://www.w3.org/2000/svg" width="24" height="24" fill="none" viewBox="0 0 24 24">
  <path fill="#1C1B1F" fill-rule="evenodd" d="M4 6.75a.25.25 0 0 0-.25.25v13c0 .138.112.25.25.25h16a.25.25 0 0 0 .25-.25V7a.25.25 0 0 0-.25-.25H4ZM2.25 7c0-.966.784-1.75 1.75-1.75h16c.966 0 1.75.784 1.75 1.75v13A1.75 1.75 0 0 1 20 21.75H4A1.75 1.75 0 0 1 2.25 20V7Z" clip-rule="evenodd"/>
  <path fill="#1C1B1F" fill-rule="evenodd" d="M8.225 12.004a.75.75 0 0 1 .75-.75h6a.75.75 0 1 1 0 1.5h-6a.75.75 0 0 1-.75-.75ZM5.936 2.006A.75.75 0 0 1 6.5 1.75h11a.75.75 0 0 1 .564.256l3.5 4a.75.75 0 1 1-1.128.988L17.16 3.25H6.84L3.564 6.994a.75.75 0 1 1-1.128-.988l3.5-4Z" clip-rule="evenodd"/>
</svg>
